public/tokens/default.svg

<svg width="500" height="500" viewBox="0 0 500 500" fill="none" xmlns="http://www.w3.org/2000/svg">
<circle cx="250" cy="250" r="250" fill="#A5E5F7"/>
<path d="M328.205 327.692V410.762H207.748C139.748 410.762 89.2344 361.897 89.2344 293.487L89.2344 172.304H171.805V273.942C171.805 308.147 193.177 327.692 227.177 327.692H328.205ZM171.805 172.304V89.2344L292.262 89.2344C360.262 89.2344 410.776 138.099 410.776 206.509V327.692H328.205V226.054C328.205 191.849 306.834 172.304 272.834 172.304H171.805Z" fill="#02010A"/>
</svg>

<svg xmlns="http://www.w3.org/2000/svg" width="500" height="500" fill="none" viewBox="0 0 500 500"><circle cx="250" cy="250" r="250" fill="#a5e5f7"/><path fill="#02010a" d="M328.205 327.692v83.07H207.748c-68 0-118.514-48.865-118.514-117.275V172.304h82.571v101.638c0 34.205 21.372 53.75 55.372 53.75zm-156.4-155.388v-83.07h120.457c68 0 118.514 48.865 118.514 117.275v121.183h-82.571V226.054c0-34.205-21.371-53.75-55.371-53.75z"/></svg>
